icons/apparel/apparel.svg

<svg xmlns="http://www.w3.org/2000/svg" xmlns:xlink="http://www.w3.org/1999/xlink" width="128pt" height="128pt" viewBox="0 0 128 128" version="1.1">
<g id="surface1">
<path d="M 73.9375 3.644531 C 75.789062 5.917969 76.714844 8.621094 76.714844 11.75 L 74.792969 19 C 73.222656 21.273438 71.015625 22.410156 68.167969 22.410156 L 67.097656 23.265625 C 66.671875 23.976562 66.457031 25.46875 66.457031 27.742188 L 66.457031 28.382812 L 75.644531 28.382812 L 76.929688 33.503906 L 88.253906 33.503906 L 128 65.28125 L 115.820312 81.0625 L 88.253906 58.667969 L 92.101562 127.554688 L 82.699219 127.980469 L 66.457031 126.914062 L 51.070312 125.636719 L 36.753906 127.554688 L 40.816406 59.519531 L 13.460938 81.273438 L 0 65.28125 L 40.816406 33.503906 L 51.285156 33.503906 L 52.996094 28.382812 L 62.824219 28.382812 L 62.824219 27.742188 C 62.824219 21.773438 64.035156 18.785156 66.457031 18.785156 C 69.589844 18.785156 71.445312 18.074219 72.011719 16.652344 L 73.082031 11.75 C 73.082031 9.1875 72.511719 7.199219 71.371094 5.777344 C 69.949219 4.355469 67.597656 3.644531 64.320312 3.644531 C 62.183594 3.644531 60.546875 4.210938 59.40625 5.351562 L 57.484375 8.761719 L 56.628906 12.175781 C 56.628906 13.171875 56.058594 13.667969 54.917969 13.667969 C 53.777344 13.667969 53.207031 13.027344 53.207031 11.75 C 53.207031 9.1875 53.992188 6.558594 55.558594 3.855469 C 57.125 1.296875 60.046875 0.0195312 64.320312 0.0195312 C 68.738281 0.0195312 71.941406 1.226562 73.9375 3.644531 "/>
</g>
</svg>

<svg xmlns="http://www.w3.org/2000/svg" width="128pt" height="128pt" viewBox="0 0 128 128"><path d="M73.938 3.645q2.777 3.41 2.777 8.105L74.793 19q-2.354 3.41-6.625 3.41l-1.07.856q-.64 1.066-.641 4.476v.64h9.188l1.285 5.122h11.324L128 65.28l-12.18 15.781-27.566-22.394 3.848 68.887-9.403.425-16.242-1.066-15.387-1.277-14.316 1.918 4.062-68.035-27.355 21.753L0 65.281l40.816-31.777h10.47l1.71-5.121h9.828v-.64q0-8.956 3.633-8.958c3.133 0 4.988-.71 5.555-2.133l1.07-4.902c0-2.562-.57-4.55-1.71-5.973q-2.135-2.132-7.052-2.132c-2.136 0-3.773.566-4.914 1.707l-1.922 3.41-.855 3.414q0 1.493-1.711 1.492-1.71 0-1.711-1.918 0-3.841 2.352-7.895Q57.909.02 64.32.02c4.418 0 7.621 1.207 9.618 3.625"/></svg>
